X:1
T:148 solfejo
T:148 solfejo
L:1/8
Q:1/4=90
M:3/4
K:G
V:1 treble nm="Piano" snm="Pno."
V:1
!mf! (G2 B2 d2 | d3 c B2 | AB c2 cd | c2 B4) |!f! (G2 B2 e2 | d3 c B2 |!>(! A2 G2 F2!>)! | %7
!mf! G4) (DE |!<(! FG AB cd!<)! |!f! c2 B2 G2 | D2 c2 cd | c2 B4) |!p! (D2 c2 A2 | D2 B2 G2 | %14
 D2 A2 F2 | G6) |] %16

